dest/img/social/yt.svg

<svg width="32" height="32" viewBox="0 0 32 32" fill="none" xmlns="http://www.w3.org/2000/svg">
<path fill-rule="evenodd" clip-rule="evenodd" d="M16 0C7.16344 0 0 7.16344 0 16C0 24.8366 7.16344 32 16 32C24.8366 32 32 24.8366 32 16C32 7.16344 24.8366 0 16 0ZM22.6679 10.4995C23.4022 10.701 23.9805 11.2948 24.1768 12.0488C24.5335 13.4153 24.5335 16.2666 24.5335 16.2666C24.5335 16.2666 24.5335 19.1178 24.1768 20.4845C23.9805 21.2385 23.4022 21.8322 22.6679 22.0338C21.3371 22.4 16.0001 22.4 16.0001 22.4C16.0001 22.4 10.6632 22.4 9.3323 22.0338C8.59795 21.8322 8.01962 21.2385 7.82335 20.4845C7.4668 19.1178 7.4668 16.2666 7.4668 16.2666C7.4668 16.2666 7.4668 13.4153 7.82335 12.0488C8.01962 11.2948 8.59795 10.701 9.3323 10.4995C10.6632 10.1333 16.0001 10.1333 16.0001 10.1333C16.0001 10.1333 21.3371 10.1333 22.6679 10.4995Z" fill="white"/>
<path d="M14.4004 19.2V13.8667L18.6671 16.5335L14.4004 19.2Z" fill="white"/>
</svg>

<svg width="32" height="32" fill="none" xmlns="http://www.w3.org/2000/svg"><path fill-rule="evenodd" clip-rule="evenodd" d="M16 0C7.163 0 0 7.163 0 16s7.163 16 16 16 16-7.163 16-16S24.837 0 16 0Zm6.668 10.5a2.167 2.167 0 0 1 1.509 1.549c.357 1.366.357 4.218.357 4.218s0 2.85-.357 4.218a2.167 2.167 0 0 1-1.51 1.549C21.338 22.4 16 22.4 16 22.4s-5.337 0-6.668-.366a2.167 2.167 0 0 1-1.509-1.55c-.356-1.366-.356-4.217-.356-4.217s0-2.852.356-4.218a2.167 2.167 0 0 1 1.51-1.55c1.33-.366 6.667-.366 6.667-.366s5.337 0 6.668.367Z" fill="#fff"/><path d="M14.4 19.2v-5.333l4.267 2.666L14.4 19.2Z" fill="#fff"/></svg>
